teeny/solid/safe.svg

<svg width="15" height="15" viewBox="0 0 15 15" fill="none" xmlns="http://www.w3.org/2000/svg">
<path d="M8 7.5C8 6.67157 8.67157 6 9.5 6C10.3284 6 11 6.67157 11 7.5C11 8.32843 10.3284 9 9.5 9C8.67157 9 8 8.32843 8 7.5Z" fill="black"/>
<path fill-rule="evenodd" clip-rule="evenodd" d="M1.5 0C0.671573 0 0 0.671573 0 1.5V12.5C0 13.3284 0.671573 14 1.5 14H2V15H3V14H12V15H13V14H13.5C14.3284 14 15 13.3284 15 12.5V1.5C15 0.671573 14.3284 0 13.5 0H1.5ZM2 3V6H3V3H2ZM9.5 5C8.11929 5 7 6.11929 7 7.5C7 8.88071 8.11929 10 9.5 10C10.8807 10 12 8.88071 12 7.5C12 6.11929 10.8807 5 9.5 5ZM2 11V8H3V11H2Z" fill="black"/>
</svg>

<svg viewBox="0 0 15 15" xmlns="http://www.w3.org/2000/svg"><g><path d="M8 7.5C8 6.67 8.67 6 9.5 6c.82 0 1.5.67 1.5 1.5 0 .82-.68 1.5-1.5 1.5C8.67 9 8 8.32 8 7.5Z"/><path fill-rule="evenodd" d="M1.5 0C.67 0 0 .67 0 1.5v11c0 .82.67 1.5 1.5 1.5H2v1h1v-1h9v1h1v-1h.5c.82 0 1.5-.68 1.5-1.5v-11c0-.83-.68-1.5-1.5-1.5h-12ZM2 3v3h1V3H2Zm7.5 2C8.11 5 7 6.11 7 7.5 7 8.88 8.11 10 9.5 10c1.38 0 2.5-1.12 2.5-2.5C12 6.11 10.88 5 9.5 5ZM2 11V8h1v3H2Z"/></g></svg>
